X: 05092
T: QUINLAN'S JIG
C: Bob McQuillen 13 May 81
B: Bob's Note Book 05 #92
%R: jig
Z: 2020 John Chambers <jc:trillian.mit.edu>
M: 6/8
L: 1/8
K: D
F \
| ABA FDF | AdB A2a | gee cde | faf dcB |\
| ABA FDF | Adf a2g | fef gea | fdd d2 :|
|: f \
| afa baf | aba f2d | Bgg Adf | aba gfg |\
| afa baf | def ecA | Bdg faf | edc d2 :|
%%begintext align
%% Arthur Quinlan
%% of Dover, Mass., has brought great happiness
%% to others with himself and his fiddle - I
%% sure hope you like this tune, old friend.
%%endtext

%%sep 1 1 500

%%sep 1 1 500

